**kern	**silbe	**harmony	**phrase	**leadinstrument	**rhyme	**timestamp	**harte
*ICvox	*	*M4/4	*	*	*	*	*M4/4
*VRlead	*	*	*	*	*	*	*
*Hstimme	*	*	*	*	*	*	*
*D:	*	*D:	*	*	*	*	*D:
*M4/4	*	*	*	*	*	*	*
*clefG2	*	*	*	*	*	*	*
r;	.	1r;	.	r	.	0	N.C.
r;	.	1r;	.	r	.	0.046	N.C.
=1	=1	=1	=1	=1	=1	=1	=1
*>Letter>A2	*>Letter>A2	*>Letter>A2	*>Letter>A2	*>Letter>A2	*>Letter>A2	*>Letter>A2	*>Letter>A2
*>Label>Intro	*>Label>Intro	*>Label>Intro	*>Label>Intro	*>Label>Intro	*>Label>Intro	*>Label>Intro	*>Label>Intro
1r	.	1DM	newline	guitar	.	0.255	D:maj
=2	=2	=2	=2	=2	=2	=2	=2
1r	.	2AM	.	guitar	.	1.515	A:maj
.	.	2GM	.	guitar	.	2.145	G:maj
=3	=3	=3	=3	=3	=3	=3	=3
1r	.	1DM	.	guitar	.	2.775	D:maj
=4	=4	=4	=4	=4	=4	=4	=4
1r	.	1DM	.	guitar	.	4.035	D:maj
=5	=5	=5	=5	=5	=5	=5	=5
*>Letter>A	*>Letter>A	*>Letter>A	*>Letter>A	*>Letter>A	*>Letter>A	*>Letter>A	*>Letter>A
*>Label>Verse	*>Label>Verse	*>Label>Verse	*>Label>Verse	*>Label>Verse	*>Label>Verse	*>Label>Verse	*>Label>Verse
4f#	I	1DM	newline	voice	.	5.295	D:maj
4f#	see	.	.	.	.	.	.
4r	.	.	.	.	.	.	.
4d	a	.	.	.	.	.	.
=6	=6	=6	=6	=6	=6	=6	=6
4e	bad	2AM	.	voice	.	6.545	A:maj
4d	_	.	.	.	.	.	.
4e	moon	2GM	.	voice	.	7.17	G:maj
8d	a	.	.	.	.	.	.
[8f#	ri-	.	.	.	(A	.	.
=7	=7	=7	=7	=7	=7	=7	=7
8f#]	_	1DM	.	voice	.	7.795	D:maj
4.d	-sin'.	.	.	.	a)	.	.
2r	.	.	.	.	.	.	.
=8	=8	=8	=8	=8	=8	=8	=8
1r	.	1DM	.	voice	.	9.045	D:maj
=9	=9	=9	=9	=9	=9	=9	=9
4f#	I	1DM	.	voice	.	10.295	D:maj
4f#	see	.	.	.	.	.	.
2r	.	.	.	.	.	.	.
=10	=10	=10	=10	=10	=10	=10	=10
8e	trou-	2AM	.	voice	.	11.545	A:maj
4d	-ble	.	.	.	.	.	.
8r	.	.	.	.	.	.	.
4f#	on	2GM	.	voice	.	12.17	G:maj
8d	the	.	.	.	.	.	.
[8d	way.	.	.	.	B	.	.
=11	=11	=11	=11	=11	=11	=11	=11
4d]	_	1DM	.	voice	.	12.795	D:maj
2r	.	.	.	.	.	.	.
4r	.	.	.	.	.	.	.
=12	=12	=12	=12	=12	=12	=12	=12
1r	.	1DM	.	voice	.	14.045	D:maj
=13	=13	=13	=13	=13	=13	=13	=13
4f#	I	1DM	newline	voice	.	15.295	D:maj
4f#	see	.	.	.	.	.	.
2r	.	.	.	.	.	.	.
=14	=14	=14	=14	=14	=14	=14	=14
8e	earth-	2AM	.	voice	.	16.541	A:maj
4.d	_	.	.	.	.	.	.
4e	-quakes	.	.	.	.	.	.
8d	and	2GM	.	voice	.	17.164	G:maj
[8f#	light-	.	.	.	(A	.	.
=15	=15	=15	=15	=15	=15	=15	=15
8f#]	_	1DM	.	voice	.	17.787	D:maj
4.d	-nin'.	.	.	.	a)	.	.
2r	.	.	.	.	.	.	.
=16	=16	=16	=16	=16	=16	=16	=16
1r	.	1DM	.	voice	.	19.033	D:maj
=17	=17	=17	=17	=17	=17	=17	=17
4f#	I	1DM	.	voice	.	20.279	D:maj
4f#	see	.	.	.	.	.	.
2r	.	.	.	.	.	.	.
=18	=18	=18	=18	=18	=18	=18	=18
8e	bad	2AM	.	voice	.	21.524	A:maj
4d	_	.	.	.	.	.	.
4.f#	times	.	.	.	.	.	.
.	.	2GM	.	voice	.	22.147	G:maj
8d	to-	.	.	.	.	.	.
[8d	-day.	.	.	.	B	.	.
=19	=19	=19	=19	=19	=19	=19	=19
4d]	_	1DM	.	voice	.	22.77	D:maj
2r	.	.	.	.	.	.	.
4r	.	.	.	.	.	.	.
=20	=20	=20	=20	=20	=20	=20	=20
1r	.	1DM	.	voice	.	24.016	D:maj
=21	=21	=21	=21	=21	=21	=21	=21
*>Letter>B	*>Letter>B	*>Letter>B	*>Letter>B	*>Letter>B	*>Letter>B	*>Letter>B	*>Letter>B
*>Label>Chorus	*>Label>Chorus	*>Label>Chorus	*>Label>Chorus	*>Label>Chorus	*>Label>Chorus	*>Label>Chorus	*>Label>Chorus
4g	Don't	1GM	newline	voice	.	25.262	G:maj
4g	go	.	.	.	.	.	.
4g	'round	.	.	.	.	.	.
8e	to-	.	.	.	.	.	.
[8d	-night.	.	.	.	A	.	.
=22	=22	=22	=22	=22	=22	=22	=22
8d]	_	1GM	.	voice	.	26.507	G:maj
8e	_	.	.	.	.	.	.
4r	.	.	.	.	.	.	.
8r	.	.	.	.	.	.	.
8d	Well	.	.	.	.	.	.
4d	it's	.	.	.	.	.	.
=23	=23	=23	=23	=23	=23	=23	=23
4f#	bound	1DM	.	voice	.	27.751	D:maj
8f#	to	.	.	.	.	.	.
4f#	take	.	.	.	.	.	.
4e	your	.	.	.	.	.	.
[8d	life.	.	.	.	A	.	.
=24	=24	=24	=24	=24	=24	=24	=24
8d]	_	1DM	.	voice	.	28.996	D:maj
8B	_	.	.	.	.	.	.
2r	.	.	.	.	.	.	.
4r	.	.	.	.	.	.	.
=25	=25	=25	=25	=25	=25	=25	=25
2.e	There's	1AM	.	voice	.	30.24	A:maj
8e	a	.	.	.	.	.	.
8e	bad	.	.	.	.	.	.
=26	=26	=26	=26	=26	=26	=26	=26
8d	_	1GM	.	voice	.	31.485	G:maj
4.d	moon	.	.	.	.	.	.
4d	on	.	.	.	.	.	.
8d	the	.	.	.	.	.	.
[8d	rise.	.	.	.	A	.	.
=27	=27	=27	=27	=27	=27	=27	=27
4d]	_	1DM	.	voice	.	32.729	D:maj
2r	.	.	.	.	.	.	.
4r	.	.	.	.	.	.	.
=28	=28	=28	=28	=28	=28	=28	=28
1r	.	1DM	.	voice	.	33.974	D:maj
=29	=29	=29	=29	=29	=29	=29	=29
*>Letter>A	*>Letter>A	*>Letter>A	*>Letter>A	*>Letter>A	*>Letter>A	*>Letter>A	*>Letter>A
*>Label>Verse	*>Label>Verse	*>Label>Verse	*>Label>Verse	*>Label>Verse	*>Label>Verse	*>Label>Verse	*>Label>Verse
4f#	I	1DM	newline	voice	.	35.218	D:maj
4f#	hear	.	.	.	.	.	.
2r	.	.	.	.	.	.	.
=30	=30	=30	=30	=30	=30	=30	=30
8e	hur-	2AM	.	voice	.	36.46	A:maj
4d	-ri-	.	.	.	.	.	.
4.e	-canes	.	.	.	.	.	.
.	.	2GM	.	voice	.	37.081	G:maj
8d	a	.	.	.	.	.	.
[8f#	blow	.	.	.	(C	.	.
=31	=31	=31	=31	=31	=31	=31	=31
8f#]	_	1DM	.	voice	.	37.702	D:maj
4.d	in'.	.	.	.	c)	.	.
2r	.	.	.	.	.	.	.
=32	=32	=32	=32	=32	=32	=32	=32
1r	.	1DM	.	voice	.	38.944	D:maj
=33	=33	=33	=33	=33	=33	=33	=33
4f#	I	1DM	.	voice	.	40.186	D:maj
2f#	know	.	.	.	.	.	.
8d	the	.	.	.	.	.	.
[8e	end	.	.	.	.	.	.
=34	=34	=34	=34	=34	=34	=34	=34
4e]	_	2AM	.	voice	.	41.428	A:maj
4d	is	.	.	.	.	.	.
8f#	co-	2GM	.	voice	.	42.049	G:maj
4d	-min'	.	.	.	.	.	.
[8d	soon.	.	.	.	D	.	.
=35	=35	=35	=35	=35	=35	=35	=35
4d]	_	1DM	.	voice	.	42.67	D:maj
2r	.	.	.	.	.	.	.
4r	.	.	.	.	.	.	.
=36	=36	=36	=36	=36	=36	=36	=36
1r	.	1DM	.	voice	.	43.912	D:maj
=37	=37	=37	=37	=37	=37	=37	=37
4f#	I	1DM	newline	voice	.	45.154	D:maj
4f#	fear	.	.	.	.	.	.
2r	.	.	.	.	.	.	.
=38	=38	=38	=38	=38	=38	=38	=38
8e	ri-	2AM	.	voice	.	46.39	A:maj
8d	-vers	.	.	.	.	.	.
4r	.	.	.	.	.	.	.
4e	o-	2GM	.	voice	.	47.009	G:maj
8d	-ver-	.	.	.	.	.	.
[8f#	-flow-	.	.	.	(C	.	.
=39	=39	=39	=39	=39	=39	=39	=39
8f#]	_	1DM	.	voice	.	47.627	D:maj
4.d	-in'.	.	.	.	c)	.	.
2r	.	.	.	.	.	.	.
=40	=40	=40	=40	=40	=40	=40	=40
1r	.	1DM	.	voice	.	48.864	D:maj
=41	=41	=41	=41	=41	=41	=41	=41
4f#	I	1DM	.	voice	.	50.1	D:maj
2f#	hear	.	.	.	.	.	.
8d	the	.	.	.	.	.	.
[8e	voice	.	.	.	.	.	.
=42	=42	=42	=42	=42	=42	=42	=42
4e]	_	2AM	.	voice	.	51.337	A:maj
8d	of	.	.	.	.	.	.
4.f#	rage	.	.	.	.	.	.
.	.	2GM	.	voice	.	51.955	G:maj
8d	and	.	.	.	.	.	.
[8d	ru-	.	.	.	(D	.	.
=43	=43	=43	=43	=43	=43	=43	=43
8d]	_	1DM	.	voice	.	52.573	D:maj
4.d	-in.	.	.	.	d)	.	.
2r	.	.	.	.	.	.	.
=44	=44	=44	=44	=44	=44	=44	=44
1r	.	1DM	.	voice	.	53.81	D:maj
=45	=45	=45	=45	=45	=45	=45	=45
*>Letter>B	*>Letter>B	*>Letter>B	*>Letter>B	*>Letter>B	*>Letter>B	*>Letter>B	*>Letter>B
*>Label>Chorus	*>Label>Chorus	*>Label>Chorus	*>Label>Chorus	*>Label>Chorus	*>Label>Chorus	*>Label>Chorus	*>Label>Chorus
4g	Don't	1GM	newline	voice	.	55.046	G:maj
4g	go	.	.	.	.	.	.
4g	'round	.	.	.	.	.	.
8e	to-	.	.	.	.	.	.
[8d	-night.	.	.	.	A	.	.
=46	=46	=46	=46	=46	=46	=46	=46
8d]	_	1GM	.	voice	.	56.28	G:maj
8e	_	.	.	.	.	.	.
4r	.	.	.	.	.	.	.
8r	.	.	.	.	.	.	.
8d	Well	.	.	.	.	.	.
4d	it's	.	.	.	.	.	.
=47	=47	=47	=47	=47	=47	=47	=47
4f#	bound	1DM	.	voice	.	57.514	D:maj
8f#	to	.	.	.	.	.	.
4f#	take	.	.	.	.	.	.
4e	your	.	.	.	.	.	.
[8d	life.	.	.	.	A	.	.
=48	=48	=48	=48	=48	=48	=48	=48
8d]	_	1DM	.	voice	.	58.748	D:maj
8B	_	.	.	.	.	.	.
2r	.	.	.	.	.	.	.
4r	.	.	.	.	.	.	.
=49	=49	=49	=49	=49	=49	=49	=49
2.e	There's	1AM	.	voice	.	59.982	A:maj
8e	a	.	.	.	.	.	.
8e	bad	.	.	.	.	.	.
=50	=50	=50	=50	=50	=50	=50	=50
8d	_	1GM	.	voice	.	61.216	G:maj
4d	moon	.	.	.	.	.	.
8r	.	.	.	.	.	.	.
4d	on	.	.	.	.	.	.
8d	the	.	.	.	.	.	.
[8d	rise.	.	.	.	A	.	.
=51	=51	=51	=51	=51	=51	=51	=51
2d]	_	1DM	.	voice	.	62.45	D:maj
2r	.	.	.	.	.	.	.
=52	=52	=52	=52	=52	=52	=52	=52
4r	.	1DM	.	voice	.	63.684	D:maj
2d	Al-	.	.	.	.	.	.
4d	-right!.	.	.	.	.	.	.
=53	=53	=53	=53	=53	=53	=53	=53
*>Letter>A2	*>Letter>A2	*>Letter>A2	*>Letter>A2	*>Letter>A2	*>Letter>A2	*>Letter>A2	*>Letter>A2
*>Label>Solo	*>Label>Solo	*>Label>Solo	*>Label>Solo	*>Label>Solo	*>Label>Solo	*>Label>Solo	*>Label>Solo
1r	.	1DM	newline	guitar	.	64.918	D:maj
=54	=54	=54	=54	=54	=54	=54	=54
1r	.	2AM	.	guitar	.	66.134	A:maj
.	.	2GM	.	guitar	.	66.743	G:maj
=55	=55	=55	=55	=55	=55	=55	=55
1r	.	1DM	.	guitar	.	67.351	D:maj
=56	=56	=56	=56	=56	=56	=56	=56
1r	.	1DM	.	guitar	.	68.568	D:maj
=57	=57	=57	=57	=57	=57	=57	=57
1r	.	1DM	.	guitar	.	69.785	D:maj
=58	=58	=58	=58	=58	=58	=58	=58
1r	.	2AM	.	guitar	.	71.002	A:maj
.	.	2GM	.	guitar	.	71.61	G:maj
=59	=59	=59	=59	=59	=59	=59	=59
1r	.	1DM	.	guitar	.	72.219	D:maj
=60	=60	=60	=60	=60	=60	=60	=60
1r	.	1DM	.	guitar	.	73.435	D:maj
=61	=61	=61	=61	=61	=61	=61	=61
*>Letter>B	*>Letter>B	*>Letter>B	*>Letter>B	*>Letter>B	*>Letter>B	*>Letter>B	*>Letter>B
*>Label>Chorus	*>Label>Chorus	*>Label>Chorus	*>Label>Chorus	*>Label>Chorus	*>Label>Chorus	*>Label>Chorus	*>Label>Chorus
1r	.	1GM	newline	guitar	.	74.652	G:maj
=62	=62	=62	=62	=62	=62	=62	=62
1r	.	1GM	.	guitar	.	75.906	G:maj
=63	=63	=63	=63	=63	=63	=63	=63
1r	.	1DM	.	guitar	.	77.16	D:maj
=64	=64	=64	=64	=64	=64	=64	=64
1r	.	1DM	.	guitar	.	78.414	D:maj
=65	=65	=65	=65	=65	=65	=65	=65
1r	.	1AM	.	guitar	.	79.668	A:maj
=66	=66	=66	=66	=66	=66	=66	=66
1r	.	1GM	.	guitar	.	80.922	G:maj
=67	=67	=67	=67	=67	=67	=67	=67
1r	.	1DM	.	guitar	.	82.176	D:maj
=68	=68	=68	=68	=68	=68	=68	=68
1r	.	1DM	.	guitar	.	83.429	D:maj
=69	=69	=69	=69	=69	=69	=69	=69
*>Letter>A	*>Letter>A	*>Letter>A	*>Letter>A	*>Letter>A	*>Letter>A	*>Letter>A	*>Letter>A
*>Label>Verse	*>Label>Verse	*>Label>Verse	*>Label>Verse	*>Label>Verse	*>Label>Verse	*>Label>Verse	*>Label>Verse
4f#	Hope	1DM	newline	voice	.	84.683	D:maj
2f#	you	.	.	.	.	.	.
4r	.	.	.	.	.	.	.
=70	=70	=70	=70	=70	=70	=70	=70
8e	got	2AM	.	voice	.	85.937	A:maj
4d	your	.	.	.	.	.	.
8r	.	.	.	.	.	.	.
4e	things	2GM	.	voice	.	86.564	G:maj
8d	to-	.	.	.	.	.	.
[8f#	-ge-	.	.	.	(E	.	.
=71	=71	=71	=71	=71	=71	=71	=71
8f#]	_	1DM	.	voice	.	87.19	D:maj
4.d	-ther.	.	.	.	e)	.	.
2r	.	.	.	.	.	.	.
=72	=72	=72	=72	=72	=72	=72	=72
1r	.	1DM	.	voice	.	88.444	D:maj
=73	=73	=73	=73	=73	=73	=73	=73
4f#	Hope	1DM	.	voice	.	89.697	D:maj
4.f#	you	.	.	.	.	.	.
8r	.	.	.	.	.	.	.
4d	are	.	.	.	.	.	.
=74	=74	=74	=74	=74	=74	=74	=74
4e	quite	.	.	.	.	.	.
8d	pre-	2AM	.	voice	.	90.951	A:maj
4.f#	-pared	.	.	.	.	.	.
.	.	2GM	.	voice	.	91.578	G:maj
8d	to	.	.	.	.	.	.
[8d	die.	.	.	.	A	.	.
=75	=75	=75	=75	=75	=75	=75	=75
4d]	_	1DM	.	voice	.	92.204	D:maj
2r	.	.	.	.	.	.	.
4r	.	.	.	.	.	.	.
=76	=76	=76	=76	=76	=76	=76	=76
1r	.	1DM	.	voice	.	93.458	D:maj
=77	=77	=77	=77	=77	=77	=77	=77
4f#	Looks	1DM	newline	voice	.	94.711	D:maj
4f#	like	.	.	.	.	.	.
4r	.	.	.	.	.	.	.
4d	we're	.	.	.	.	.	.
=78	=78	=78	=78	=78	=78	=78	=78
4e	in	2AM	.	voice	.	95.966	A:maj
8d	for	.	.	.	.	.	.
4.e	na-	.	.	.	.	.	.
.	.	2GM	.	voice	.	96.593	G:maj
8d	-sty	.	.	.	.	.	.
[8f#	wea-	.	.	.	(E	.	.
=79	=79	=79	=79	=79	=79	=79	=79
8f#]	_	1DM	.	voice	.	97.22	D:maj
8d	-ther.	.	.	.	e)	.	.
2r	.	.	.	.	.	.	.
4r	.	.	.	.	.	.	.
=80	=80	=80	=80	=80	=80	=80	=80
1r	.	1DM	.	voice	.	98.474	D:maj
=81	=81	=81	=81	=81	=81	=81	=81
4f#	One	1DM	.	voice	.	99.728	D:maj
2f#	eye	.	.	.	A	.	.
4d	is	.	.	.	.	.	.
=82	=82	=82	=82	=82	=82	=82	=82
8e	ta-	2AM	.	voice	.	100.982	A:maj
4d	-ken	.	.	.	.	.	.
8r	.	.	.	.	.	.	.
4f#	for	2GM	.	voice	.	101.609	G:maj
8d	an	.	.	.	.	.	.
[8d	eye.	.	.	.	A	.	.
=83	=83	=83	=83	=83	=83	=83	=83
8d]	_	1DM	.	voice	.	102.236	D:maj
2r	.	.	.	.	.	.	.
4r	.	.	.	.	.	.	.
8r	.	.	.	.	.	.	.
=84	=84	=84	=84	=84	=84	=84	=84
4r	.	1DM	.	voice	.	103.49	D:maj
8r	.	.	.	.	.	.	.
[8f#	Well	.	.	.	.	.	.
2f#]	_	.	.	.	.	.	.
=85	=85	=85	=85	=85	=85	=85	=85
*>Letter>B	*>Letter>B	*>Letter>B	*>Letter>B	*>Letter>B	*>Letter>B	*>Letter>B	*>Letter>B
*>Label>Chorus	*>Label>Chorus	*>Label>Chorus	*>Label>Chorus	*>Label>Chorus	*>Label>Chorus	*>Label>Chorus	*>Label>Chorus
4g	don't	1GM	newline	voice	.	104.744	G:maj
4g	go	.	.	.	.	.	.
4g	'round	.	.	.	.	.	.
8e	to-	.	.	.	.	.	.
[8d	-night.	.	.	.	A	.	.
=86	=86	=86	=86	=86	=86	=86	=86
8d]	_	1GM	.	voice	.	105.978	G:maj
8e	_	.	.	.	.	.	.
4r	.	.	.	.	.	.	.
8r	.	.	.	.	.	.	.
8d	Well	.	.	.	.	.	.
4d	it's	.	.	.	.	.	.
=87	=87	=87	=87	=87	=87	=87	=87
4f#	bound	1DM	.	voice	.	107.212	D:maj
8f#	to	.	.	.	.	.	.
4f#	take	.	.	.	.	.	.
4e	your	.	.	.	.	.	.
[8d	life.	.	.	.	A	.	.
=88	=88	=88	=88	=88	=88	=88	=88
8d]	_	1DM	.	voice	.	108.447	D:maj
8B	_	.	.	.	.	.	.
2r	.	.	.	.	.	.	.
4r	.	.	.	.	.	.	.
=89	=89	=89	=89	=89	=89	=89	=89
2.e	There's	1AM	.	voice	.	109.681	A:maj
8e	a	.	.	.	.	.	.
8e	bad	.	.	.	.	.	.
=90	=90	=90	=90	=90	=90	=90	=90
8d	_	1GM	.	voice	.	110.915	G:maj
4.d	moon	.	.	.	.	.	.
4d	on	.	.	.	.	.	.
8d	the	.	.	.	.	.	.
[8d	rise.	.	.	.	A	.	.
=91	=91	=91	=91	=91	=91	=91	=91
4d]	_	1DM	.	voice	.	112.149	D:maj
2r	.	.	.	.	.	.	.
4r	.	.	.	.	.	.	.
=92	=92	=92	=92	=92	=92	=92	=92
1r	.	1DM	.	voice	.	113.384	D:maj
=93	=93	=93	=93	=93	=93	=93	=93
4g	Don't	1GM	newline	voice	.	114.618	G:maj
4g	go	.	.	.	.	.	.
4g	'round	.	.	.	.	.	.
8e	to-	.	.	.	.	.	.
[8d	-night.	.	.	.	A	.	.
=94	=94	=94	=94	=94	=94	=94	=94
8d]	_	1GM	.	voice	.	115.848	G:maj
8e	_	.	.	.	.	.	.
4r	.	.	.	.	.	.	.
8r	.	.	.	.	.	.	.
8d	Well	.	.	.	.	.	.
4d	it's	.	.	.	.	.	.
=95	=95	=95	=95	=95	=95	=95	=95
4f#	bound	1DM	.	voice	.	117.079	D:maj
8f#	to	.	.	.	.	.	.
4f#	take	.	.	.	.	.	.
4e	your	.	.	.	.	.	.
[8d	life.	.	.	.	A	.	.
=96	=96	=96	=96	=96	=96	=96	=96
8d]	_	1DM	.	voice	.	118.309	D:maj
8B	_	.	.	.	.	.	.
2r	.	.	.	.	.	.	.
4r	.	.	.	.	.	.	.
=97	=97	=97	=97	=97	=97	=97	=97
2.e	There's	1AM	.	voice	.	119.539	A:maj
8e	a	.	.	.	.	.	.
8e	bad	.	.	.	.	.	.
=98	=98	=98	=98	=98	=98	=98	=98
8d	_	1GM	.	voice	.	120.77	G:maj
4.d	moon	.	.	.	.	.	.
4d	on	.	.	.	.	.	.
8d	the	.	.	.	.	.	.
[8d	rise.	.	.	.	A	.	.
=99	=99	=99	=99	=99	=99	=99	=99
4d]	_	1DM	.	voice	.	122	D:maj
2r	.	.	.	.	.	.	.
4r	.	.	.	.	.	.	.
=100	=100	=100	=100	=100	=100	=100	=100
1r	.	1DM	.	voice	.	123.23	D:maj
r;	.	1r;	.	r	.	126.768	N.C.
r;	.	1r;	.	r	.	132.65	N.C.
*-	*-	*-	*-	*-	*-	*-	*-
!!!BillboardChartDate: 1969/05/03
!!!BillboardPeak: 2
!!!BillboardWeeksOnChart: 14
!!!COC: Creedence Clearwater Revival
!!!ENC: Nathaniel Condit-Schultz
!!!EST: Awating manual error checking and editing.
!!!OTL: Bad Moon Rising
!!!RDF**chordsym: original McGill chord annotation + (implied pitch class set, with bass pitch in first position)
!!!RDF**harmony: **recip + pitch class of root + harmonic quality
!!!RDF**leadinstrument: original McGill primary instrumentation annotation
!!!RDF**phrase: newline = linebreak in original McGill transcription
!!!RDF**timestamp: McGill audio timestamp in seconds
!!!RDT: 2017/01/12/
!!!SampleActualRank: 80
!!!SampleID#: 0852
!!!SampleTargetRank: 82
